icons/brush-2-fill.svg

<svg xmlns="http://www.w3.org/2000/svg" width="24" height="24" fill="none"><g clip-path="url(#a)"><g><path fill="#121212" d="M16.536 15.95L18.656 13.828L15.475 10.646L19.01 7.11098L16.89 4.98998L13.354 8.52498L10.172 5.34298L8.05001 7.46398L16.536 15.95ZM13.354 5.69698L16.182 2.86798C16.3695 2.68051 16.6238 2.5752 16.889 2.5752C17.1542 2.5752 17.4085 2.68051 17.596 2.86798L21.132 6.40398C21.3195 6.59151 21.4248 6.84582 21.4248 7.11098C21.4248 7.37615 21.3195 7.63045 21.132 7.81798L18.303 10.646L20.778 13.121C20.871 13.2139 20.9447 13.3241 20.9951 13.4455C21.0454 13.5669 21.0713 13.6971 21.0713 13.8285C21.0713 13.9599 21.0454 14.09 20.9951 14.2114C20.9447 14.3328 20.871 14.4431 20.778 14.536L13 22.314C12.8125 22.5015 12.5582 22.6068 12.293 22.6068C12.0278 22.6068 11.7735 22.5015 11.586 22.314L1.68601 12.414C1.49853 12.2265 1.39322 11.9721 1.39322 11.707C1.39322 11.4418 1.49853 11.1875 1.68601 11L9.46401 3.22198C9.55688 3.12901 9.66717 3.05525 9.78857 3.00492C9.90996 2.9546 10.0401 2.9287 10.1715 2.9287C10.3029 2.9287 10.433 2.9546 10.5544 3.00492C10.6758 3.05525 10.7861 3.12901 10.879 3.22198L13.354 5.69698Z"/></g></g><defs><clipPath id="a"><rect width="24" height="24" fill="white"/></clipPath></defs></svg>

<svg width="24" height="24" fill="none" xmlns="http://www.w3.org/2000/svg"><g clip-path="url(#a)"><path d="m16.536 15.95 2.12-2.122-3.181-3.182 3.535-3.535-2.12-2.121-3.536 3.535-3.182-3.182L8.05 7.464l8.486 8.486ZM13.354 5.697l2.828-2.829a1 1 0 0 1 1.414 0l3.536 3.536a1 1 0 0 1 0 1.414l-2.829 2.828 2.475 2.475a1.001 1.001 0 0 1 0 1.415L13 22.314a1 1 0 0 1-1.414 0l-9.9-9.9a1 1 0 0 1 0-1.414l7.778-7.778a1 1 0 0 1 1.415 0l2.475 2.475Z" /></g><defs><clipPath id="a"><path fill="#fff" d="M0 0h24v24H0z"/></clipPath></defs></svg>
